svg/u1faa9.svg

<svg viewBox="0 0 128 128" xmlns="http://www.w3.org/2000/svg" xmlns:xlink="http://www.w3.org/1999/xlink">
  <g>
    <g>
      <path d="M119.67,14.29l2.86,0.91l-3.36,1.36c-1.76,0.71-3.14,2.14-3.8,3.92l-1.1,2.98 l-0.96-2.97c-0.67-2.06-2.28-3.67-4.34-4.34L106,15.2l2.72-0.84c2.02-0.62,3.62-2.15,4.35-4.13l1.2-3.29l1.06,3.1 C116.01,12.06,117.63,13.64,119.67,14.29z" fill="#FFFFFF" opacity="0.6"/>
      <path d="M18.06,101.95l2.86,0.91l-3.36,1.36c-1.76,0.71-2.29,2.14-2.95,3.92l-1.1,5.57l-0.96-5.55 c-0.67-2.06-1.31-3.67-3.36-4.34l-2.97-0.96l2.72-0.84c2.02-0.62,2.65-2.15,3.37-4.13l1.2-5.95l1.06,5.76 C15.25,99.73,16.02,101.3,18.06,101.95z" fill="#FFFFFF"/>
      <path d="M120.2,112.8l2.86,0.91l-3.36,1.36c-1.76,0.71-2.29,2.14-2.95,3.92l-1.1,5.57l-0.96-5.55 c-0.67-2.06-1.31-3.67-3.36-4.34l-2.97-0.96l2.72-0.84c2.02-0.62,2.65-2.15,3.37-4.13l1.2-5.95l1.06,5.76 C117.4,110.57,118.16,112.15,120.2,112.8z" fill="#FFFFFF"/>
      <path d="M30.09,116.1l2.86,0.91l-3.36,1.36c-1.76,0.71-3.14,2.14-3.8,3.92l-1.1,2.98 l-0.96-2.97c-0.67-2.06-2.28-3.67-4.34-4.34L16.43,117l2.72-0.84c2.02-0.62,3.62-2.15,4.35-4.13l1.2-3.29l1.06,3.1 C26.44,113.87,28.05,115.45,30.09,116.1z" fill="#FFFFFF" opacity="0.6"/>
      <path d="M22.46,16.42l5.78,2.04L22,20.67c-2.87,1.16-2.91,3.48-3.77,7.02l-1.39,6.65 c0,0-0.64-2.51-1.15-5.5c-0.76-4.45-2.63-7.99-5.05-8.52l-5.71-1.97l5.58-2.06c2.25-0.56,3.95-2.75,4.76-6.55 c0.76-3.58,1.56-7.01,1.56-7.01s1.14,4.39,1.49,6.17S19.13,15.36,22.46,16.42z" fill="#FFFFFF" opacity="0.6"/>
    </g>
    <g>
      <g>
        <g>
          <circle cx="66.09" cy="65.34" fill="#81D4FA" r="54"/>
          <radialGradient id="SVGID_1_" cx="79.7728" cy="64.9846" gradientUnits="userSpaceOnUse" r="87.5847">
            <stop offset="0.642" stop-color="#5C6BC0" stop-opacity="0"/>
            <stop offset="0.9688" stop-color="#5C6BC0"/>
          </radialGradient>
          <circle cx="66.09" cy="65.34" fill="url(#SVGID_1_)" r="54"/>
          <radialGradient id="SVGID_2_" cx="39.0793" cy="40.0649" gradientUnits="userSpaceOnUse" r="97.4688">
            <stop offset="0.4468" stop-color="#9C27B0" stop-opacity="0"/>
            <stop offset="0.9805" stop-color="#9C27B0" stop-opacity="0.9"/>
          </radialGradient>
          <circle cx="66.09" cy="65.34" fill="url(#SVGID_2_)" r="54"/>
        </g>
        <path d="M55.48,67.3l0.65-15.15c0,0,13.04,0.75,14.39,0.7l0.09-15.62l9.85-0.79l-2.24-15.7 c-5.15,0.8-10.39,0.97-15.57,0.51L64,11.38c-3.84,0.21-6.97,0.48-10.84,1.52c-0.49,0.13-0.96,0.36-0.96,0.36 s-2.73,5.03-3.51,6.67l-5.87-1.38c-0.13,0.19-7.72,13.81-7.72,13.81l-4.46,46.4l5.47,1.26l1.65,14.4c0,0,9.6,3.32,31.71,3.32 l0.36-14.5l7.26-0.67l0.15-15.67C65.87,68.59,55.48,67.3,55.48,67.3z" fill="#FFFFFF" opacity="0.47"/>
        <polygon fill="#FFFFFF" points="47.35,66.33 44.89,81.98 61.77,83.53 61.77,68.06 "/>
        <path d="M120.09,65.34c0-3.44-0.34-6.81-0.95-10.07c-0.62,0.27-10.43,4.59-10.84,4.77 c-0.42,0.18,1.17,15.98,1.17,15.98l-9.54,2.93l-1.92,14.74l-5.36,1.49L89.41,109l-6.89,2.25l-1.11,5.87 C103.76,110.52,120.09,89.84,120.09,65.34z" fill="#3949AB" opacity="0.57"/>
        <path d="M120.09,65.34c0-8.78-2.11-17.06-5.83-24.39l-2.72,1.56l-11.23,4.64l3.51,14.36 l-9.86,2.93l0.46,15.74l-8.29,1.54l-0.62,14.73l-7.72,0.85l-1.29,14.72c-8.18,1.3-21.41,0.46-21.41,0.46s0.22,3.55,0.35,5.81 c3.44,0.69,7,1.05,10.64,1.05C95.91,119.34,120.09,95.16,120.09,65.34z" fill="#8E24AA" opacity="0.3"/>
        <linearGradient id="SVGID_3_" gradientUnits="userSpaceOnUse" x1="33.3369" x2="33.3369" y1="93.989" y2="93.989">
          <stop offset="0" stop-color="#0D47A1"/>
          <stop offset="1" stop-color="#9C27B0"/>
        </linearGradient>
        <path d="M33.34,93.99" fill="url(#SVGID_3_)"/>
        <path d="M66.12,21.8l-12.83-0.81L49.9,35.64c-9.08-1.17-17.8-5.86-17.8-5.86s-8.65,13.2-8.34,14.07 l6.87,2.69l-5.19,14.14l14.11,4.08l2.6-15.68l13.33,2.32l1.21-14.58c0,0,8.63,0.96,8.45,0.73C64.86,37.19,66.12,21.8,66.12,21.8z " fill="#FFFFFF"/>
        <path d="M119.55,73.03l0.2-1.55c-0.09,0.04-3.77,1.69-9.7,3.65l-1.08-14.68 c2.5-0.92,10.31-4.27,10.35-4.29l-0.27-1.47c-0.05,0.02-1.22,0.62-2.99,1.42l-4.37-13.07c1.87-0.91,2.84-1.49,2.89-1.51 l-0.61-1.2c-0.07,0.04-2.92,1.71-7.9,3.75l-4.89-13.44c1.8-0.94,3.18-1.82,4.1-2.46l-0.97-1c-1.49,1.02-4.12,2.6-7.87,4.12 c-0.49,0.2-1.02,0.4-1.56,0.61l-5.41-12.6c0.85-0.28,2.22-0.77,3.03-1.09l-1.61-0.87c-1.72,0.68-2.99,1.09-4.93,1.6l-1.24-4.29 l-1.62-0.59l1.54,5.19c-2.73,0.65-5.66,1.15-8.79,1.47L75,12.07l-1.47-0.22l0.96,9.01c-2.74,0.24-5.61,0.38-8.63,0.38 c-0.82,0-1.62-0.01-2.42-0.03l1.85-9.86l-1.46,0.04l-1.75,9.79c-4.56-0.16-8.68-0.64-12.36-1.41l3.43-6.87l-1.7,0.45l-3.09,6.12 l0.02,0.01c-2.74-0.65-4.68-1.23-6.87-2.23L40,18.04c0.45,0.21,1.33,0.58,1.81,0.77l-6.63,11.96c-3.59-1.71-5.74-3.4-6.67-4.22 l-0.97,0.97c0.59,0.53,1.66,1.41,3.28,2.43l-7.35,13.02c-3.31-1.5-5.17-2.64-5.23-2.68l-0.63,1.21c0.04,0.02,0.7,0.42,1.99,1.09 l-5.4,12.61c-0.53-0.26-0.56-0.28-1.05-0.53l-0.26,1.37c0.07,0.04,2.14,1.14,6.07,2.77l-2.5,14.45 c-2.71-1.02-3.93-1.59-3.99-1.62l0.17,1.55c0.09,0.04,2.81,1.29,9.09,3.34l1.74,12.84c-4.68-1.74-7.02-2.95-7.09-2.98l0.85,1.9 c0.11,0.06,4.48,2.33,14.62,5.25l3.69,13.34c-5.24-2.01-8.14-3.93-8.2-3.97c0,0,0.89,0.89,1.67,1.65 c0.78,0.76,1.52,1.39,1.52,1.39c2.58,1.28,6.22,3.03,11.61,4.48l1.65,4.08l1.84,0.79l-1.87-4.45c3.13,0.77,6.67,1.44,10.62,1.89 l0.77,5.47l1.43,0.28l-0.82-5.6c2.95,0.29,6.11,0.47,9.49,0.47c1.05,0,2.08-0.02,3.09-0.05l-0.41,6l1.33-0.06l0.43-5.98 c4.31-0.2,8.27-0.67,11.86-1.3l-1.13,5.45l1.48-0.43l1.09-5.29c4-0.77,7.5-1.73,10.47-2.71l-0.48,3.2l1.38-0.84l0.54-2.85 c6.49-2.29,8.11-3.76,8.18-3.81c0,0,2.27-2.18,2.58-2.6c0,0-1.63,0.85-2.08,1.11l4.03-11.79c5.57-2.12,7.43-3.34,7.5-3.38 l0.91-2.09c-0.04,0.03-1.49,1.01-3.51,1.95l2.35-13.01C118.18,73.65,119.48,73.06,119.55,73.03z M110.45,43.62l4.36,13.03 c-2.52,1.09-6.13,2.54-10.57,4.02l-3.15-13.3C105.02,46.03,108.17,44.69,110.45,43.62z M87.58,51.05 c4.58-0.93,8.68-2.08,12.22-3.24l3.15,13.29c-3.9,1.25-8.39,2.5-13.3,3.54L87.58,51.05z M88.33,64.91 c-4.41,0.89-9.14,1.59-14.1,1.98L73.12,53c4.7-0.32,9.09-0.92,13.14-1.69L88.33,64.91z M71.32,51.76l-0.07-13.97 c5.58-0.27,10.43-0.95,14.6-1.85l3.21,13.41C83.79,50.52,77.83,51.42,71.32,51.76z M71.77,53.08l1.12,13.91 c-2.3,0.15-4.64,0.24-7.02,0.24c-3.33,0-6.58-0.17-9.74-0.46l0.5-13.93c2.95,0.26,6.03,0.41,9.23,0.41 C67.88,53.25,69.84,53.19,71.77,53.08z M65.87,51.9c-3.62,0-7.09-0.19-10.39-0.51l1.5-13.84c2.74,0.23,5.69,0.37,8.89,0.37 c1.39,0,2.72-0.03,4.03-0.08l0.07,13.98C68.62,51.87,67.26,51.9,65.87,51.9z M54.14,51.24c-5.62-0.63-10.72-1.64-15.19-2.82 l4.67-13.14c3.39,0.91,7.37,1.67,12.02,2.13L54.14,51.24z M55.28,52.72l-0.5,13.92c-5.15-0.54-10.02-1.4-14.49-2.42l2.14-13.57 C46.34,51.53,50.64,52.26,55.28,52.72z M41.11,50.35l-2.13,13.56c-4.79-1.15-9.08-2.47-12.73-3.75l4.77-12.74 C33.96,48.45,37.35,49.46,41.11,50.35z M46.05,66.77L44.78,80.8c-4.86-0.79-9.35-1.78-13.35-2.81l1.99-14.14 C37.25,64.94,41.49,65.96,46.05,66.77z M51.54,83.09l1.35,13.35c-5.24-0.62-10.08-1.52-14.41-2.53L36.9,80.67 C41.38,81.65,46.3,82.5,51.54,83.09z M46.12,81.01L47.38,67c4.33,0.72,8.93,1.25,13.72,1.47v14 C55.86,82.26,50.83,81.73,46.12,81.01z M65.87,83.92c1.07,0,2.13-0.02,3.18-0.05l-0.14,13.4c-0.58,0.01-1.16,0.02-1.75,0.02 c-4.5,0-8.81-0.26-12.9-0.69l-1.35-13.36C57.07,83.67,61.4,83.92,65.87,83.92z M65.87,82.57c-1.15,0-2.29-0.02-3.42-0.05V68.52 c1.13,0.04,2.27,0.06,3.42,0.06c3.62,0,7.16-0.19,10.58-0.53v14.05C73.02,82.4,69.48,82.57,65.87,82.57z M70.4,83.83 c5.47-0.2,10.73-0.76,15.63-1.52l-1.28,13.66c-4.44,0.68-9.28,1.14-14.47,1.28L70.4,83.83z M77.8,81.98V67.91 c5.54-0.61,10.77-1.58,15.53-2.72l-0.01,14.41C88.55,80.6,83.35,81.45,77.8,81.98z M87.41,82.09c4.22-0.7,8.16-1.54,11.75-2.42 l-1.71,13.62c-3.37,0.92-7.16,1.78-11.32,2.46L87.41,82.09z M94.68,79.33V64.86c4.92-1.23,9.3-2.62,12.96-3.93l1.08,14.63 C104.85,76.8,100.08,78.15,94.68,79.33z M99.95,31.24l4.85,13.34c-3.79,1.49-8.67,3.12-14.43,4.47l-3.21-13.41 C92.63,34.37,96.86,32.74,99.95,31.24z M88.16,19.7l5.43,12.66c-3.28,1.14-7.46,2.27-12.56,3.07l-1.95-13.75 C82.34,21.21,85.36,20.55,88.16,19.7z M66.49,22.57c3.99-0.02,7.74-0.26,11.25-0.71l1.95,13.76c-4.06,0.57-8.65,0.94-13.83,0.94 c-0.13,0-0.25,0-0.38,0L66.49,22.57z M65.14,22.58l-1.01,13.97c-5.22-0.08-9.76-0.53-13.67-1.19l3.22-13.55 C57.18,22.29,61,22.55,65.14,22.58z M43.08,19.3c2.74,0.99,5.83,1.75,9.24,2.3l-3.19,13.52c-5.55-1.04-9.75-2.47-12.72-3.78 L43.08,19.3z M31.96,30.66c2.42,1.39,5.81,2.95,10.35,4.27l-4.67,13.15c-5.33-1.47-9.71-3.13-12.94-4.54L31.96,30.66z M15.4,55.8 l5.38-12.58c2.07,1.02,5.1,2.38,8.96,3.77l-4.77,12.74C20.65,58.16,17.36,56.72,15.4,55.8z M17.73,73.76l2.49-14.4 c3.15,1.27,7.17,2.73,11.88,4.12l-1.99,14.17C25.02,76.29,20.8,74.88,17.73,73.76z M24.85,89.76l-1.73-12.75 c3.5,1.11,7.67,2.28,12.37,3.35l1.58,13.21C32.14,92.35,24.85,89.76,24.85,89.76z M37.07,107.48l-3.74-13.49 c3.42,0.94,7.26,1.85,11.44,2.6l2.57,13.7C43.33,109.49,39.9,108.48,37.07,107.48z M48.77,110.57l-2.58-13.72 c4.4,0.75,9.16,1.32,14.2,1.6l1.38,13.5C56.95,111.78,52.61,111.27,48.77,110.57z M75.85,111.42c-3.29,0.37-6.84,0.59-10.62,0.59 c-0.71,0-1.41-0.01-2.1-0.02l-1.37-13.47c1.77,0.08,3.57,0.12,5.4,0.12c3.45,0,6.75-0.15,9.91-0.42L75.85,111.42z M77.22,111.25 l1.21-13.15c4.85-0.46,9.32-1.19,13.36-2.06l-3.24,13C85.25,109.92,81.46,110.71,77.22,111.25z M101.83,104.12 c-2.35,1.18-6.33,2.94-11.78,4.51l3.22-12.91c4.96-1.13,9.23-2.45,12.7-3.71L101.83,104.12z M111.01,88.56 c-2.83,1.24-6.91,2.82-12.03,4.29l1.58-13.54c3.05-0.79,5.82-1.6,8.26-2.37c0,0,3.59-1.19,4.57-1.54L111.01,88.56z" fill="#81D4FA"/>
      </g>
      <path d="M91.34,81.42l2.81,0.89l-3.3,1.34c-1.73,0.7-3.08,2.1-3.73,3.85l-1.08,2.93l-0.94-2.91 c-0.65-2.02-2.24-3.6-4.26-4.26l-2.91-0.94l2.67-0.82c1.98-0.61,3.56-2.11,4.27-4.06l1.18-3.23l1.04,3.05 C87.75,79.23,89.33,80.79,91.34,81.42z" fill="#FFFFFF"/>
      <path d="M89.42,57.1l5.11,1.62l-6,2.43c-3.15,1.27-4.09,3.81-5.27,6.99l-1.96,9.94l-1.71-9.9 c-1.19-3.67-2.33-6.55-6-7.74l-5.29-1.71l4.85-1.5c3.6-1.11,4.73-3.84,6.02-7.38l2.14-10.62l1.88,10.28 C84.41,53.13,85.56,55.78,89.42,57.1z" fill="#FFFFFF"/>
    </g>
  </g>
</svg>

<svg viewBox="0 0 128 128" xmlns="http://www.w3.org/2000/svg">
  <defs>
    <linearGradient id="SVGID_3_" gradientUnits="userSpaceOnUse" x1="33.3369" x2="33.3369" y1="93.989" y2="93.989">
      <stop offset="0" stop-color="#0D47A1"/>
      <stop offset="1" stop-color="#9C27B0"/>
    </linearGradient>
    <radialGradient id="SVGID_1_" cx="79.7728" cy="64.9846" gradientUnits="userSpaceOnUse" r="87.5847">
      <stop offset="0.642" stop-color="#5C6BC0" stop-opacity="0"/>
      <stop offset="0.9688" stop-color="#5C6BC0"/>
    </radialGradient>
    <radialGradient id="SVGID_2_" cx="39.0793" cy="40.0649" gradientUnits="userSpaceOnUse" r="97.4688">
      <stop offset="0.4468" stop-color="#9C27B0" stop-opacity="0"/>
      <stop offset="0.9805" stop-color="#9C27B0" stop-opacity="0.9"/>
    </radialGradient>
  </defs>
  <path d="M119.67,14.29 L122.53,15.2 L119.17,16.56 C117.41,17.27 116.03,18.7 115.37,20.48 L114.27,23.46 L113.31,20.49 C112.64,18.43 111.03,16.82 108.97,16.15 L106,15.2 L108.72,14.36 C110.74,13.74 112.34,12.21 113.07,10.23 L114.27,6.94 L115.33,10.04 C116.01,12.06 117.63,13.64 119.67,14.29 Z" fill="#FFFFFF" opacity="0.6"/>
  <path d="M18.06,101.95 L20.92,102.86 L17.56,104.22 C15.8,104.93 15.27,106.36 14.61,108.14 L13.51,113.71 L12.55,108.16 C11.88,106.1 11.24,104.49 9.19,103.82 L6.22,102.86 L8.94,102.02 C10.96,101.4 11.59,99.87 12.31,97.89 L13.51,91.94 L14.57,97.7 C15.25,99.73 16.02,101.3 18.06,101.95 Z" fill="#FFFFFF"/>
  <path d="M120.2,112.8 L123.06,113.71 L119.7,115.07 C117.94,115.78 117.41,117.21 116.75,118.99 L115.65,124.56 L114.69,119.01 C114.02,116.95 113.38,115.34 111.33,114.67 L108.36,113.71 L111.08,112.87 C113.1,112.25 113.73,110.72 114.45,108.74 L115.65,102.79 L116.71,108.55 C117.4,110.57 118.16,112.15 120.2,112.8 Z" fill="#FFFFFF"/>
  <path d="M30.09,116.1 L32.95,117.01 L29.59,118.37 C27.83,119.08 26.45,120.51 25.79,122.29 L24.69,125.27 L23.73,122.3 C23.06,120.24 21.45,118.63 19.39,117.96 L16.43,117 L19.15,116.16 C21.17,115.54 22.77,114.01 23.5,112.03 L24.7,108.74 L25.76,111.84 C26.44,113.87 28.05,115.45 30.09,116.1 Z" fill="#FFFFFF" opacity="0.6"/>
  <path d="M22.46,16.42 L28.24,18.46 L22,20.67 C19.13,21.83 19.09,24.15 18.23,27.69 L16.84,34.34 C16.84,34.34 16.2,31.83 15.69,28.84 C14.93,24.39 13.06,20.85 10.64,20.32 L4.93,18.35 L10.51,16.29 C12.76,15.73 14.46,13.54 15.27,9.74 C16.03,6.16 16.83,2.73 16.83,2.73 C16.83,2.73 17.97,7.12 18.32,8.9 C18.67,10.68 19.13,15.36 22.46,16.42 Z" fill="#FFFFFF" opacity="0.6"/>
  <path d="M120.09,65.34 A54 54 0 1 1 12.09,65.34 A54 54 0 1 1 120.09,65.34 Z" fill="#81D4FA"/>
  <path d="M120.09,65.34 A54 54 0 1 1 12.09,65.34 A54 54 0 1 1 120.09,65.34 Z" fill="url(#SVGID_1_)"/>
  <path d="M120.09,65.34 A54 54 0 1 1 12.09,65.34 A54 54 0 1 1 120.09,65.34 Z" fill="url(#SVGID_2_)"/>
  <path d="M55.48,67.3 L56.13,52.15 C56.13,52.15 69.17,52.9 70.52,52.85 L70.61,37.23 L80.46,36.44 L78.22,20.74 C73.07,21.54 67.83,21.71 62.65,21.25 L64,11.38 C60.16,11.59 57.03,11.86 53.16,12.9 C52.67,13.03 52.2,13.26 52.2,13.26 C52.2,13.26 49.47,18.29 48.69,19.93 L42.82,18.55 C42.69,18.74 35.1,32.36 35.1,32.36 L30.64,78.76 L36.11,80.02 L37.76,94.42 C37.76,94.42 47.36,97.74 69.47,97.74 L69.83,83.24 L77.09,82.57 L77.24,66.9 C65.87,68.59 55.48,67.3 55.48,67.3 Z" fill="#FFFFFF" opacity="0.47"/>
  <path d="M47.35,66.33 L44.89,81.98 L61.77,83.53 L61.77,68.06 Z" fill="#FFFFFF"/>
  <path d="M120.09,65.34 C120.09,61.9 119.75,58.53 119.14,55.27 C118.52,55.54 108.71,59.86 108.3,60.04 C107.88,60.22 109.47,76.02 109.47,76.02 L99.93,78.95 L98.01,93.69 L92.65,95.18 L89.41,109 L82.52,111.25 L81.41,117.12 C103.76,110.52 120.09,89.84 120.09,65.34 Z" fill="#3949AB" opacity="0.57"/>
  <path d="M120.09,65.34 C120.09,56.56 117.98,48.28 114.26,40.95 L111.54,42.51 L100.31,47.15 L103.82,61.51 L93.96,64.44 L94.42,80.18 L86.13,81.72 L85.51,96.45 L77.79,97.3 L76.5,112.02 C68.32,113.32 55.09,112.48 55.09,112.48 C55.09,112.48 55.31,116.03 55.44,118.29 C58.88,118.98 62.44,119.34 66.08,119.34 C95.91,119.34 120.09,95.16 120.09,65.34 Z" fill="#8E24AA" opacity="0.3"/>
  <path d="M66.12,21.8 L53.29,20.99 L49.9,35.64 C40.82,34.47 32.1,29.78 32.1,29.78 C32.1,29.78 23.45,42.98 23.76,43.85 L30.63,46.54 L25.44,60.68 L39.55,64.76 L42.15,49.08 L55.48,51.4 L56.69,36.82 C56.69,36.82 65.32,37.78 65.14,37.55 C64.86,37.19 66.12,21.8 66.12,21.8 Z" fill="#FFFFFF"/>
  <path d="M119.55,73.03 L119.75,71.48 C119.66,71.52 115.98,73.17 110.05,75.13 L108.97,60.45 C111.47,59.53 119.28,56.18 119.32,56.16 L119.05,54.69 C119,54.71 117.83,55.31 116.06,56.11 L111.69,43.04 C113.56,42.13 114.53,41.55 114.58,41.53 L113.97,40.33 C113.9,40.37 111.05,42.04 106.07,44.08 L101.18,30.64 C102.98,29.7 104.36,28.82 105.28,28.18 L104.31,27.18 C102.82,28.2 100.19,29.78 96.44,31.3 C95.95,31.5 95.42,31.7 94.88,31.91 L89.47,19.31 C90.32,19.03 91.69,18.54 92.5,18.22 L90.89,17.35 C89.17,18.03 87.9,18.44 85.96,18.95 L84.72,14.66 L83.1,14.07 L84.64,19.26 C81.91,19.91 78.98,20.41 75.85,20.73 L75,12.07 L73.53,11.85 L74.49,20.86 C71.75,21.1 68.88,21.24 65.86,21.24 C65.04,21.24 64.24,21.23 63.44,21.21 L65.29,11.35 L63.83,11.39 L62.08,21.18 C57.52,21.02 53.4,20.54 49.72,19.77 L53.15,12.9 L51.45,13.35 L48.36,19.47 L48.38,19.48 C45.64,18.83 43.7,18.25 41.51,17.25 L40,18.04 C40.45,18.25 41.33,18.62 41.81,18.81 L35.18,30.77 C31.59,29.06 29.44,27.37 28.51,26.55 L27.54,27.52 C28.13,28.05 29.2,28.93 30.82,29.95 L23.47,42.97 C20.16,41.47 18.3,40.33 18.24,40.29 L17.61,41.5 C17.65,41.52 18.31,41.92 19.6,42.59 L14.2,55.2 C13.67,54.94 13.64,54.92 13.15,54.67 L12.89,56.04 C12.96,56.08 15.03,57.18 18.96,58.81 L16.46,73.26 C13.75,72.24 12.53,71.67 12.47,71.64 L12.64,73.19 C12.73,73.23 15.45,74.48 21.73,76.53 L23.47,89.37 C18.79,87.63 16.45,86.42 16.38,86.39 L17.23,88.29 C17.34,88.35 21.71,90.62 31.85,93.54 L35.54,106.88 C30.3,104.87 27.4,102.95 27.34,102.91 C27.34,102.91 28.23,103.8 29.01,104.56 C29.79,105.32 30.53,105.95 30.53,105.95 C33.11,107.23 36.75,108.98 42.14,110.43 L43.79,114.51 L45.63,115.3 L43.76,110.85 C46.89,111.62 50.43,112.29 54.38,112.74 L55.15,118.21 L56.58,118.49 L55.76,112.89 C58.71,113.18 61.87,113.36 65.25,113.36 C66.3,113.36 67.33,113.34 68.34,113.31 L67.93,119.31 L69.26,119.25 L69.69,113.27 C74,113.07 77.96,112.6 81.55,111.97 L80.42,117.42 L81.9,116.99 L82.99,111.7 C86.99,110.93 90.49,109.97 93.46,108.99 L92.98,112.19 L94.36,111.35 L94.9,108.5 C101.39,106.21 103.01,104.74 103.08,104.69 C103.08,104.69 105.35,102.51 105.66,102.09 C105.66,102.09 104.03,102.94 103.58,103.2 L107.61,91.41 C113.18,89.29 115.04,88.07 115.11,88.03 L116.02,85.94 C115.98,85.97 114.53,86.95 112.51,87.89 L114.86,74.88 C118.18,73.65 119.48,73.06 119.55,73.03 Z M110.45,43.62 L114.81,56.65 C112.29,57.74 108.68,59.19 104.24,60.67 L101.09,47.37 C105.02,46.03 108.17,44.69 110.45,43.62 Z M87.58,51.05 C92.16,50.12 96.26,48.97 99.8,47.81 L102.95,61.1 C99.05,62.35 94.56,63.6 89.65,64.64 L87.58,51.05 Z M88.33,64.91 C83.92,65.8 79.19,66.5 74.23,66.89 L73.12,53 C77.82,52.68 82.21,52.08 86.26,51.31 L88.33,64.91 Z M71.32,51.76 L71.25,37.79 C76.83,37.52 81.68,36.84 85.85,35.94 L89.06,49.35 C83.79,50.52 77.83,51.42 71.32,51.76 Z M71.77,53.08 L72.89,66.99 C70.59,67.14 68.25,67.23 65.87,67.23 C62.54,67.23 59.29,67.06 56.13,66.77 L56.63,52.84 C59.58,53.1 62.66,53.25 65.86,53.25 C67.88,53.25 69.84,53.19 71.77,53.08 Z M65.87,51.9 C62.25,51.9 58.78,51.71 55.48,51.39 L56.98,37.55 C59.72,37.78 62.67,37.92 65.87,37.92 C67.26,37.92 68.59,37.89 69.9,37.84 L69.97,51.82 C68.62,51.87 67.26,51.9 65.87,51.9 Z M54.14,51.24 C48.52,50.61 43.42,49.6 38.95,48.42 L43.62,35.28 C47.01,36.19 50.99,36.95 55.64,37.41 L54.14,51.24 Z M55.28,52.72 L54.78,66.64 C49.63,66.1 44.76,65.24 40.29,64.22 L42.43,50.65 C46.34,51.53 50.64,52.26 55.28,52.72 Z M41.11,50.35 L38.98,63.91 C34.19,62.76 29.9,61.44 26.25,60.16 L31.02,47.42 C33.96,48.45 37.35,49.46 41.11,50.35 Z M46.05,66.77 L44.78,80.8 C39.92,80.01 35.43,79.02 31.43,77.99 L33.42,63.85 C37.25,64.94 41.49,65.96 46.05,66.77 Z M51.54,83.09 L52.89,96.44 C47.65,95.82 42.81,94.92 38.48,93.91 L36.9,80.67 C41.38,81.65 46.3,82.5 51.54,83.09 Z M46.12,81.01 L47.38,67 C51.71,67.72 56.31,68.25 61.1,68.47 L61.1,82.47 C55.86,82.26 50.83,81.73 46.12,81.01 Z M65.87,83.92 C66.94,83.92 68,83.9 69.05,83.87 L68.91,97.27 C68.33,97.28 67.75,97.29 67.16,97.29 C62.66,97.29 58.35,97.03 54.26,96.6 L52.91,83.24 C57.07,83.67 61.4,83.92 65.87,83.92 Z M65.87,82.57 C64.72,82.57 63.58,82.55 62.45,82.52 L62.45,68.52 C63.58,68.56 64.72,68.58 65.87,68.58 C69.49,68.58 73.03,68.39 76.45,68.05 L76.45,82.1 C73.02,82.4 69.48,82.57 65.87,82.57 Z M70.4,83.83 C75.87,83.63 81.13,83.07 86.03,82.31 L84.75,95.97 C80.31,96.65 75.47,97.11 70.28,97.25 L70.4,83.83 Z M77.8,81.98 L77.8,67.91 C83.34,67.3 88.57,66.33 93.33,65.19 L93.32,79.6 C88.55,80.6 83.35,81.45 77.8,81.98 Z M87.41,82.09 C91.63,81.39 95.57,80.55 99.16,79.67 L97.45,93.29 C94.08,94.21 90.29,95.07 86.13,95.75 L87.41,82.09 Z M94.68,79.33 L94.68,64.86 C99.6,63.63 103.98,62.24 107.64,60.93 L108.72,75.56 C104.85,76.8 100.08,78.15 94.68,79.33 Z M99.95,31.24 L104.8,44.58 C101.01,46.07 96.13,47.7 90.37,49.05 L87.16,35.64 C92.63,34.37 96.86,32.74 99.95,31.24 Z M88.16,19.7 L93.59,32.36 C90.31,33.5 86.13,34.63 81.03,35.43 L79.08,21.68 C82.34,21.21 85.36,20.55 88.16,19.7 Z M66.49,22.57 C70.48,22.55 74.23,22.31 77.74,21.86 L79.69,35.62 C75.63,36.19 71.04,36.56 65.86,36.56 C65.73,36.56 65.61,36.56 65.48,36.56 L66.49,22.57 Z M65.14,22.58 L64.13,36.55 C58.91,36.47 54.37,36.02 50.46,35.36 L53.68,21.81 C57.18,22.29 61,22.55 65.14,22.58 Z M43.08,19.3 C45.82,20.29 48.91,21.05 52.32,21.6 L49.13,35.12 C43.58,34.08 39.38,32.65 36.41,31.34 L43.08,19.3 Z M31.96,30.66 C34.38,32.05 37.77,33.61 42.31,34.93 L37.64,48.08 C32.31,46.61 27.93,44.95 24.7,43.54 L31.96,30.66 Z M15.4,55.8 L20.78,43.22 C22.85,44.24 25.88,45.6 29.74,46.99 L24.97,59.73 C20.65,58.16 17.36,56.72 15.4,55.8 Z M17.73,73.76 L20.22,59.36 C23.37,60.63 27.39,62.09 32.1,63.48 L30.11,77.65 C25.02,76.29 20.8,74.88 17.73,73.76 Z M24.85,89.76 L23.12,77.01 C26.62,78.12 30.79,79.29 35.49,80.36 L37.07,93.57 C32.14,92.35 24.85,89.76 24.85,89.76 Z M37.07,107.48 L33.33,93.99 C36.75,94.93 40.59,95.84 44.77,96.59 L47.34,110.29 C43.33,109.49 39.9,108.48 37.07,107.48 Z M48.77,110.57 L46.19,96.85 C50.59,97.6 55.35,98.17 60.39,98.45 L61.77,111.95 C56.95,111.78 52.61,111.27 48.77,110.57 Z M75.85,111.42 C72.56,111.79 69.01,112.01 65.23,112.01 C64.52,112.01 63.82,112 63.13,111.99 L61.76,98.52 C63.53,98.6 65.33,98.64 67.16,98.64 C70.61,98.64 73.91,98.49 77.07,98.22 L75.85,111.42 Z M77.22,111.25 L78.43,98.1 C83.28,97.64 87.75,96.91 91.79,96.04 L88.55,109.04 C85.25,109.92 81.46,110.71 77.22,111.25 Z M101.83,104.12 C99.48,105.3 95.5,107.06 90.05,108.63 L93.27,95.72 C98.23,94.59 102.5,93.27 105.97,92.01 L101.83,104.12 Z M111.01,88.56 C108.18,89.8 104.1,91.38 98.98,92.85 L100.56,79.31 C103.61,78.52 106.38,77.71 108.82,76.94 C108.82,76.94 112.41,75.75 113.39,75.4 L111.01,88.56 Z" fill="#81D4FA"/>
  <path d="M91.34,81.42 L94.15,82.31 L90.85,83.65 C89.12,84.35 87.77,85.75 87.12,87.5 L86.04,90.43 L85.1,87.52 C84.45,85.5 82.86,83.92 80.84,83.26 L77.93,82.32 L80.6,81.5 C82.58,80.89 84.16,79.39 84.87,77.44 L86.05,74.21 L87.09,77.26 C87.75,79.23 89.33,80.79 91.34,81.42 Z" fill="#FFFFFF"/>
  <path d="M89.42,57.1 L94.53,58.72 L88.53,61.15 C85.38,62.42 84.44,64.96 83.26,68.14 L81.3,78.08 L79.59,68.18 C78.4,64.51 77.26,61.63 73.59,60.44 L68.3,58.73 L73.15,57.23 C76.75,56.12 77.88,53.39 79.17,49.85 L81.31,39.23 L83.19,49.51 C84.41,53.13 85.56,55.78 89.42,57.1 Z" fill="#FFFFFF"/>
</svg>
